pieces/chess7/bw.svg

<svg width="68" height="68" viewBox="0 0 68 68" fill="none" xmlns="http://www.w3.org/2000/svg">
<path d="M27.984 55.472C26.1493 55.4293 24.6347 55.408 23.44 55.408C22.2453 55.3653 21.6053 55.28 21.52 55.152C20.9653 54.64 20.6667 54.0213 20.624 53.296C20.5813 52.5707 20.8373 51.9733 21.392 51.504C21.4347 51.4187 21.7973 50.9067 22.48 49.968C23.1627 48.9867 23.9733 47.792 24.912 46.384C23.2907 44.336 21.7547 42.3307 20.304 40.368C18.8533 38.3627 17.9787 37.1893 17.68 36.848C16.7413 36.0373 16.272 35.0347 16.272 33.84C16.272 32.6027 16.7413 31.5147 17.68 30.576C17.936 30.32 18.704 29.3387 19.984 27.632C21.3067 25.9253 22.7147 24.0693 24.208 22.064C25.744 20.0587 27.152 18.2027 28.432 16.496C29.7547 14.7467 30.5013 13.7867 30.672 13.616C30.8427 13.4453 30.9707 13.296 31.056 13.168C30.5867 12.656 30.096 12.1653 29.584 11.696C29.1147 11.2267 28.8373 10.9067 28.752 10.736C27.3867 9.54133 27.3867 8.34667 28.752 7.152C28.88 6.93867 29.456 6.34133 30.48 5.36C31.5467 4.37867 32.1653 3.76 32.336 3.504C33.488 2.39467 34.5973 2.39467 35.664 3.504L37.52 5.36C38.5013 6.34133 39.12 6.93867 39.376 7.152C40.5707 8.34667 40.5707 9.54133 39.376 10.736C39.2053 10.9067 38.864 11.2267 38.352 11.696C37.84 12.1653 37.3707 12.656 36.944 13.168C36.9867 13.168 37.008 13.2107 37.008 13.296C37.0507 13.3387 37.136 13.36 37.264 13.36C37.5627 13.7013 38.352 14.7467 39.632 16.496C40.912 18.2027 42.2773 20.0587 43.728 22.064C45.2213 24.0693 46.5867 25.9253 47.824 27.632C49.104 29.3387 49.872 30.32 50.128 30.576C51.024 31.5147 51.472 32.6027 51.472 33.84C51.472 35.0347 51.024 36.0373 50.128 36.848C49.8293 37.1893 48.976 38.32 47.568 40.24C46.2027 42.1173 44.752 44.08 43.216 46.128C44.2827 47.536 45.1787 48.7733 45.904 49.84C46.672 50.864 47.12 51.4187 47.248 51.504C48.4 52.6987 48.336 53.9147 47.056 55.152C46.9707 55.28 46.2667 55.3653 44.944 55.408C43.664 55.408 42.064 55.4293 40.144 55.472C40.016 56.4107 39.9733 56.88 40.016 56.88C40.2293 57.0933 40.9547 57.2 42.192 57.2C43.4293 57.1573 44.7947 57.1147 46.288 57.072C47.7813 57.0293 49.2107 57.008 50.576 57.008C51.984 56.9653 52.9653 57.0293 53.52 57.2C54.928 57.6693 55.9093 58.7573 56.464 60.464C57.0187 62.128 57.488 63.7493 57.872 65.328H40.784C39.888 65.328 39.0347 65.3067 38.224 65.264C37.456 65.1787 36.6667 64.944 35.856 64.56C35.088 64.176 34.5973 63.8987 34.384 63.728C34.1707 63.5147 34.0427 63.28 34 63.024C34 63.28 33.9147 63.5147 33.744 63.728C33.5733 63.8987 33.104 64.176 32.336 64.56C31.44 64.944 30.5867 65.1787 29.776 65.264C28.9653 65.3067 28.176 65.328 27.408 65.328H10.128C10.5973 63.7493 11.152 62.128 11.792 60.464C12.4747 58.7573 13.52 57.6693 14.928 57.2C15.44 57.0293 16.3573 56.9653 17.68 57.008C19.0453 57.008 20.432 57.0293 21.84 57.072C23.2907 57.1147 24.592 57.1573 25.744 57.2C26.9387 57.2 27.6427 57.0933 27.856 56.88C28.0693 56.752 28.1333 56.624 28.048 56.496C28.0053 56.3253 27.984 55.984 27.984 55.472Z" fill="black"/>
<path fill-rule="evenodd" clip-rule="evenodd" d="M14.228 62.048C14.541 61.024 14.86 60.463 15.287 60.183C15.701 59.911 16.419 59.886 22.166 59.941C29.376 60.011 29.33 60.017 30.156 58.689C30.511 58.117 30.578 57.782 30.554 56.684L30.526 55.366H33.086L33 57.141C32.911 58.987 32.824 59.262 31.88 60.674C30.767 62.339 30.08 62.454 21.343 62.456L14.103 62.457L14.228 62.048ZM39.128 62.365C38.7214 62.2413 38.313 62.1237 37.903 62.012C36.944 61.745 36.808 61.638 36.193 60.68C35.38 59.41 35.042 58.213 35.039 56.593L35.037 55.366H37.4V56.776C37.401 58.403 37.736 59.144 38.71 59.676C39.26 59.976 39.824 59.998 45.78 59.941L52.252 59.881L52.741 60.305C53.01 60.539 53.346 61.118 53.488 61.593L53.746 62.457L46.527 62.443C42.557 62.435 39.228 62.4 39.128 62.365ZM24.81 53.24C24.235 53.2 23.764 53.123 23.764 53.07C23.764 53.017 24.244 52.386 24.831 51.668C25.866 50.401 28.176 47.222 28.506 46.61C28.633 46.374 27.756 45.102 24.492 40.791C22.194 37.758 20.068 34.974 19.766 34.606C19.466 34.237 19.219 33.849 19.219 33.743C19.219 33.636 19.492 33.242 19.825 32.867C20.159 32.491 21.443 30.834 22.678 29.184C26.746 23.752 31.81 17.11 32.607 16.162C33.037 15.649 33.543 15.19 33.73 15.141C34.517 14.935 35.055 15.503 38.419 20.093C43.521 27.056 46.881 31.537 47.73 32.513C48.479 33.374 48.702 34.123 48.287 34.38C48.089 34.503 42.195 42.358 40.422 44.862C39.897 45.603 39.609 46.177 39.69 46.317C40.13 47.077 42.238 49.887 43.456 51.337C44.24 52.272 44.828 53.09 44.762 53.156C44.633 53.286 26.529 53.361 24.81 53.24ZM35.588 35.184H39.037V32.093H35.582V27.73H32.491V32.093H29.037V35.184H32.491V40.609C32.491 43.592 32.549 46.091 32.62 46.161C32.69 46.231 33.365 46.266 34.12 46.237L35.491 46.184L35.588 35.184ZM32.416 10.462L31 9.005L31.912 7.958C32.413 7.383 33.097 6.664 33.431 6.361L34.038 5.811L37.181 9.011L35.641 10.416C34.793 11.188 34.041 11.843 33.968 11.87C33.895 11.897 33.198 11.263 32.418 10.462H32.416Z" fill="white"/>
</svg>

<svg height="68" width="68" xmlns="http://www.w3.org/2000/svg"><path d="m27.984 55.472q-2.752-.064-4.544-.064-1.792-.064-1.92-.256-.832-.768-.896-1.856-.064-1.088.768-1.792.064-.128 1.088-1.536 1.024-1.472 2.432-3.584-2.432-3.072-4.608-6.016-2.176-3.008-2.624-3.52-1.408-1.216-1.408-3.008 0-1.856 1.408-3.264.384-.384 2.304-2.944 1.984-2.56 4.224-5.568 2.304-3.008 4.224-5.568 1.984-2.624 2.24-2.88.256-.256.384-.448-.704-.768-1.472-1.472-.704-.704-.832-.96-2.048-1.792 0-3.584.192-.32 1.728-1.792 1.6-1.472 1.856-1.856 1.728-1.664 3.328 0l1.856 1.856q1.472 1.472 1.856 1.792 1.792 1.792 0 3.584-.256.256-1.024.96t-1.408 1.472q.064 0 .064.128.064.064.256.064.448.512 2.368 3.136 1.92 2.56 4.096 5.568 2.24 3.008 4.096 5.568 1.92 2.56 2.304 2.944 1.344 1.408 1.344 3.264 0 1.792-1.344 3.008-.448.512-2.56 3.392-2.048 2.816-4.352 5.888 1.6 2.112 2.688 3.712 1.152 1.536 1.344 1.664 1.728 1.792-.192 3.648-.128.192-2.112.256-1.92 0-4.8.064-.192 1.408-.128 1.408.32.32 2.176.32 1.856-.064 4.096-.128t4.288-.064q2.112-.064 2.944.192 2.112.704 2.944 3.264.832 2.496 1.408 4.864h-17.088q-1.344 0-2.56-.064-1.152-.128-2.368-.704-1.152-.576-1.472-.832-.32-.32-.384-.704 0 .384-.256.704-.256.256-1.408.832-1.344.576-2.56.704-1.216.064-2.368.064h-17.28q.704-2.368 1.664-4.864 1.024-2.56 3.136-3.264.768-.256 2.752-.192 2.048 0 4.16.064 2.176.064 3.904.128 1.792 0 2.112-.32.32-.192.192-.384-.064-.256-.064-1.024zm6.912-.128q0 3.968 1.088 5.056.576.832.576.96t.512.448q2.048.768 3.52.768h13.248q-.128-.32-.384-1.28t-1.152-1.344q-.704-.192-2.816-.128-2.048 0-4.352.128-2.304.064-4.288.064-1.92-.064-2.368-.512-1.088-.896-1.088-1.92 0-1.088.128-2.24zm-1.792 1.92q0-1.92-.064-1.92h-2.56q.064 1.152.064 2.176 0 .96-1.152 1.984-.448.448-2.368.512-1.92 0-4.224-.064-2.304-.128-4.416-.128-2.112-.064-2.816.128-.832.384-1.152 1.344-.32.96-.384 1.28h13.376q1.6 0 3.52-.768.576-.32.512-.448 0-.128.704-.96.96-1.216.96-3.136zm2.432-22.208v11.072h-2.944v-11.072h-3.52v-2.944h3.52v-4.288h2.944v4.288h3.52v2.944zm-6.912 11.328q-1.984 2.944-3.52 4.864-1.472 1.856-1.536 1.92.064.128 3.392.192t7.296.064q3.968 0 7.296-.064 3.392-.064 3.52-.192-.128-.064-1.792-2.048-1.6-1.984-3.712-4.992 2.624-3.648 5.248-7.232 2.688-3.584 3.2-4.16 1.088-.832 0-1.984-.512-.448-2.432-3.008-1.92-2.624-4.16-5.568-2.176-3.008-4.096-5.568-1.856-2.624-2.24-3.136-.448-.448-.96-.448-.704 0-1.024.448-.512.512-2.496 3.136-1.92 2.56-4.224 5.568-2.24 2.944-4.16 5.568-1.92 2.56-2.368 3.008-1.28 1.152 0 1.984.384.576 3.136 4.224 2.816 3.648 5.632 7.424zm5.376-40.768q-.256.384-1.6 1.728-1.28 1.344-1.472 1.536.192.384 1.472 1.728 1.344 1.28 1.6 1.472.192-.192 1.536-1.472l1.728-1.728q-.384-.192-1.728-1.536-1.344-1.344-1.536-1.728z"/><path d="m14.228 62.048c.313-1.024.632-1.585 1.059-1.865.414-.272 1.132-.297 6.879-.242 7.21.07 7.164.076 7.99-1.252.355-.572.422-.907.398-2.005l-.028-1.318h2.56l-.086 1.775c-.089 1.846-.176 2.121-1.12 3.533-1.113 1.665-1.8 1.78-10.537 1.782l-7.24.001zm24.9.317a43.32 43.32 0 0 0 -1.225-.353c-.959-.267-1.095-.374-1.71-1.332-.813-1.27-1.151-2.467-1.154-4.087l-.002-1.227h2.363v1.41c.001 1.627.336 2.368 1.31 2.9.55.3 1.114.322 7.07.265l6.472-.06.489.424c.269.234.605.813.747 1.288l.258.864-7.219-.014c-3.97-.008-7.3-.043-7.4-.078zm-14.318-9.125c-.575-.04-1.046-.117-1.046-.17s.48-.684 1.067-1.402c1.035-1.267 3.345-4.446 3.675-5.058.127-.236-.75-1.508-4.014-5.819-2.298-3.033-4.424-5.817-4.726-6.185-.3-.369-.547-.757-.547-.863 0-.107.273-.501.606-.876.334-.376 1.618-2.033 2.853-3.683 4.068-5.432 9.132-12.074 9.929-13.022.43-.513.936-.972 1.123-1.021.787-.206 1.325.362 4.689 4.952 5.102 6.963 8.462 11.444 9.311 12.42.749.861.972 1.61.557 1.867-.198.123-6.092 7.978-7.865 10.482-.525.741-.813 1.315-.732 1.455.44.76 2.548 3.57 3.766 5.02.784.935 1.372 1.753 1.306 1.819-.129.13-18.233.205-19.952.084zm10.73-12.556.048-5.5h3.449v-3.091h-3.455v-4.363h-3.091v4.363h-3.454v3.091h3.454v5.425c0 2.983.058 5.482.129 5.552.07.07.745.105 1.5.076l1.371-.053zm-3.124-30.222-1.416-1.457.912-1.047c.501-.575 1.185-1.294 1.519-1.597l.607-.55 1.571 1.6 1.572 1.6-1.54 1.405c-.848.772-1.6 1.427-1.673 1.454s-.77-.607-1.55-1.408z" fill="#fff" fill-rule="evenodd"/></svg>
